master/assets/mdi-icons.svg

<svg>
  <defs>
    <svg id="demo">
      <path d="M0 0h24v24H0z" fill="none"/>
      <path d="M20 19V7H4v12h16m0-16a2 2 0 0 1 2 2v14a2 2 0 0 1-2 2H4a2 2 0 0 1-2-2V5a2 2 0 0 1 2-2h16m-7 14v-2h5v2h-5m-3.42-4L5.57 9H8.4l3.3 3.3c.39.39.39 1.03 0 1.42L8.42 17H5.59l3.99-4z"/>
    </svg>
    <svg id="github">
      <path d="M0 0h24v24H0z" fill="none"/>
      <path d="M12 2A10 10 0 0 0 2 12c0 4.42 2.87 8.17 6.84 9.5.5.08.66-.23.66-.5v-1.69c-2.77.6-3.36-1.34-3.36-1.34-.46-1.16-1.11-1.47-1.11-1.47-.91-.62.07-.6.07-.6 1 .07 1.53 1.03 1.53 1.03.87 1.52 2.34 1.07 2.91.83.09-.65.35-1.09.63-1.34-2.22-.25-4.55-1.11-4.55-4.92 0-1.11.38-2 1.03-2.71-.1-.25-.45-1.29.1-2.64 0 0 .84-.27 2.75 1.02.79-.22 1.65-.33 2.5-.33.85 0 1.71.11 2.5.33 1.91-1.29 2.75-1.02 2.75-1.02.55 1.35.2 2.39.1 2.64.65.71 1.03 1.6 1.03 2.71 0 3.82-2.34 4.66-4.57 4.91.36.31.69.92.69 1.85V21c0 .27.16.59.67.5C19.14 20.16 22 16.42 22 12A10 10 0 0 0 12 2z"/>
    </svg>
    <svg id="npm-variant-outline">
      <path d="M0 0h24v24H0z" fill="none"/>
      <path d="M3 3v18h18V3H3m3 3h12v12h-3V9h-3v9H6V6z"/>
    </svg>
    <svg id="video">
      <path d="M0 0h24v24H0z" fill="none"/>
      <path d="M17 10.5V7a1 1 0 0 0-1-1H4a1 1 0 0 0-1 1v10a1 1 0 0 0 1 1h12a1 1 0 0 0 1-1v-3.5l4 4v-11l-4 4z"/>
    </svg>
    <svg id="youtube">
      <path d="M0 0h24v24H0z" fill="none"/>
      <path d="M10 15l5.19-3L10 9v6m11.56-7.83c.13.47.22 1.1.28 1.9.07.8.1 1.49.1 2.09L22 12c0 2.19-.16 3.8-.44 4.83-.25.9-.83 1.48-1.73 1.73-.47.13-1.33.22-2.65.28-1.3.07-2.49.1-3.59.1L12 19c-4.19 0-6.8-.16-7.83-.44-.9-.25-1.48-.83-1.73-1.73-.13-.47-.22-1.1-.28-1.9-.07-.8-.1-1.49-.1-2.09L2 12c0-2.19.16-3.8.44-4.83.25-.9.83-1.48 1.73-1.73.47-.13 1.33-.22 2.65-.28 1.3-.07 2.49-.1 3.59-.1L12 5c4.19 0 6.8.16 7.83.44.9.25 1.48.83 1.73 1.73z"/>
    </svg>
  </defs>
</svg>

<!-- Icons adapted from https://materialdesignicons.com -->
<svg>
  <defs>
    <!-- MDI: console icon -->
    <svg id="demo">
      <path d="M20,19V7H4V19H20M20,3A2,2 0 0,1 22,5V19A2,2 0 0,1 20,21H4A2,2 0 0,1 2,19V5C2,3.89 2.9,3 4,3H20M13,17V15H18V17H13M9.58,13L5.57,9H8.4L11.7,12.3C12.09,12.69 12.09,13.33 11.7,13.72L8.42,17H5.59L9.58,13Z" />
    </svg>
    <!-- MDI: github icon -->
    <svg id="github">
      <path d="M12,2A10,10 0 0,0 2,12C2,16.42 4.87,20.17 8.84,21.5C9.34,21.58 9.5,21.27 9.5,21C9.5,20.77 9.5,20.14 9.5,19.31C6.73,19.91 6.14,17.97 6.14,17.97C5.68,16.81 5.03,16.5 5.03,16.5C4.12,15.88 5.1,15.9 5.1,15.9C6.1,15.97 6.63,16.93 6.63,16.93C7.5,18.45 8.97,18 9.54,17.76C9.63,17.11 9.89,16.67 10.17,16.42C7.95,16.17 5.62,15.31 5.62,11.5C5.62,10.39 6,9.5 6.65,8.79C6.55,8.54 6.2,7.5 6.75,6.15C6.75,6.15 7.59,5.88 9.5,7.17C10.29,6.95 11.15,6.84 12,6.84C12.85,6.84 13.71,6.95 14.5,7.17C16.41,5.88 17.25,6.15 17.25,6.15C17.8,7.5 17.45,8.54 17.35,8.79C18,9.5 18.38,10.39 18.38,11.5C18.38,15.32 16.04,16.16 13.81,16.41C14.17,16.72 14.5,17.33 14.5,18.26C14.5,19.6 14.5,20.68 14.5,21C14.5,21.27 14.66,21.59 15.17,21.5C19.14,20.16 22,16.42 22,12A10,10 0 0,0 12,2Z" />
    </svg>
    <!-- MDI: npm-variant-outline icon -->
    <svg id="npm-variant-outline">
      <path d="M3,3V21H21V3H3M6,6H18V18H15V9H12V18H6V6Z" />
    </svg>
    <!-- MDI: video icon -->
    <svg id="video">
      <path d="M17,10.5V7A1,1 0 0,0 16,6H4A1,1 0 0,0 3,7V17A1,1 0 0,0 4,18H16A1,1 0 0,0 17,17V13.5L21,17.5V6.5L17,10.5Z" />
    </svg>
    <!-- MDO: youtube icon -->
    <svg id="youtube">
      <path d="M10,15L15.19,12L10,9V15M21.56,7.17C21.69,7.64 21.78,8.27 21.84,9.07C21.91,9.87 21.94,10.56 21.94,11.16L22,12C22,14.19 21.84,15.8 21.56,16.83C21.31,17.73 20.73,18.31 19.83,18.56C19.36,18.69 18.5,18.78 17.18,18.84C15.88,18.91 14.69,18.94 13.59,18.94L12,19C7.81,19 5.2,18.84 4.17,18.56C3.27,18.31 2.69,17.73 2.44,16.83C2.31,16.36 2.22,15.73 2.16,14.93C2.09,14.13 2.06,13.44 2.06,12.84L2,12C2,9.81 2.16,8.2 2.44,7.17C2.69,6.27 3.27,5.69 4.17,5.44C4.64,5.31 5.5,5.22 6.82,5.16C8.12,5.09 9.31,5.06 10.41,5.06L12,5C16.19,5 18.8,5.16 19.83,5.44C20.73,5.69 21.31,6.27 21.56,7.17Z" />
    </svg>
</svg>
